X:854
T:Soldiers' Joy
R:Country Dances
B:The Athole Collection
M:C|
L:1/8
K:D
dB|AFDF AFDF|A2d2d2cB|AFDF AFDF|G2E2E2FG|AFDF AFDF|
A2d2d2fg|afdf gece|d2D2D2||
ag|fdfg a2gf|ecef g2ag|fdfg a2 gf|edcB A2ag|fdfg a2gf|ecef g2fg|
afdf gece|d2D2D2||

